X: 899
T: Göster Bize Râhı Hüdâ
C: Hüseyin Sadettin Arel
O: Turkey
F: http://compmusic.upf.edu/node/140
N: huzzam-icedid--ilahi--duyek--goster_bize--huseyin_sadettin_arel
N: makam= huzzam-icedid
N: form= ilahi
N: usul= duyek = 8/4
M: 8/4
L: 1/16
K: C _1/4B _7/8e ^f 
Q: 1/4=156
%%MIDI tuningsystem comma53
G2 B4 B2 c3B ^A4  | Bc d2 {f}_3/4e2 dc d6 e2  | \
w:  Gös ter  bi ze   |  râ *  *  *  *  *  *  hı  Hü  | 
fg a3g f_3/4e d6 z2  | 
w:  dâ    | 
f2 f4 f2 {a}g2 f2 _3/4e2 d2  | d2 {_3/4e}dc B8-B2 c2  | \
w:  Can lar  sü *  lûk   |  et *  *  *  sin  sa  | 
d6 =e2 d2 c2 B2 A2  | G12 z4  | 
w:  na    |   | 
D2 G4 G2 A2 G2 A2 B2  | c8 =B6 d2  | \
w:  Can  yü zü nü   |  kıl  rû şe  | 
d^c _7/8B4 {c}BA G6 z2  | D2 G4 G2 A2 G2 A2 B2  | 
w:  nâ    |  Can  yü zü nü   | 
c8 d6 _3/4e2  | fa g4 f_3/4e d8  | z2 g6 g6 g2  | \
w:  kıl  rû şe  |  nâ    |  Yâ  Rab be  | 
ag f2 _3/4e2 dg f8  | z2 _3/4e6 e6 e2  | 
w:  nâ   |  yâ  Rab be  | 
f_3/4e d2 c2 {d}cB B8  | z2 c6 B6 B2  | \
w:  nâ    |  Yâ  Rab be  | 
AB A2 G2 F^E B8  | z2 F6 F6 F2  | 
w:  nâ   |  yâ  Rab be  | 
A2 G4 {A}GF F6 z2  | |


